!!!COM: Haydn, Franz Joseph
!!!CDT: 1732/3/31/-1809/5/31/
!!!CNT: Oesterreich
!!!OTL: String Quartet in D Major
!!!OPS: Opus 20
!!!ONM: No. 4
!!!OMD: Un poco Adagio affettuoso
!!!OMV: 2
!!!SCT: H III:34
!!!SCA: Thematisch-bibliographisches Werkevererzeichnis (A. van Hoboken)
!!!YOR: Altmann Edition
!!!ENC: Nestor Napoles
!!!ENC: Harmonic analysis by Nestor Napoles
!!!YEC: Copyright (c) 2017 Universitat Pompeu Fabra
!!!YEM: Rights to all derivative editions reserved.
!!!YEM: Refer to licensing agreement for further details.
!!!YEN: Barcelona, Spain
**harm	**commentary	**kern	**kern	**kern	**kern
*k[b-e-]	*k[b-e-]	*k[b-e-]	*k[b-e-]	*k[b-e-]	*k[b-e-]
*g:	*g:	*g:	*g:	*g:	*g:
*	*	*clefF4	*clefC3	*clefG2	*clefG2
*M2/4	*M2/4	*M2/4	*M2/4	*M2/4	*M2/4
*staff1/2/3/4	*	*staff1	*staff2	*staff3	*staff4
V	The tempo is slow enough to feel the V-i progression	8r	8r	8r	8dd/
=1	=1	=1	=1	=1	=1
i	.	8r	8r	8r	4gg\
ib	.	8B-\	8d/	8g/	.
viiob	.	8A\L	8c/L	8f#/L	8aa\L
i	.	8G\J	8B-/J	8g/J	8bb-\J
=2	=2	=2	=2	=2	=2
V7d	.	8c\L	4d/	8a/L	8ff#\L
ib	.	8B-\J	.	8b-/J	8gg\J
VI	Again, the tempo is slow enough to perceive this as a sixth grade before the diminished seventh harmony	8r	8r	8r	4ee-\
viioD7c	.	8c\	8a\	8f#/	.
=3	=3	=3	=3	=3	=3
ib	.	8B-\L	8b-\L	8g/	8dd/L
VI	.	8e-\J	8g\J	4g/	16.gg/L
.	.	.	.	.	32g/JJk
iiob	.	8c\L	8e-/L	.	8.a/L
V7	.	8d\J	8d/J	8f#/	.
.	.	.	.	.	32b-/LL
.	.	.	.	.	32cc/JJJ
=4	=4	=4	=4	=4	=4
i	G and E being appoggiaturas in the first violin	8r	4G/	4g/	32cc/LLL
.	.	.	.	.	32b-/
.	.	.	.	.	32a/
.	.	.	.	.	32g/JJ
.	.	8G/L	.	.	8g'/J
.	.	8GG'/J	4r	4r	8r
V	.	8r	.	.	8dd/
=5	=5	=5	=5	=5	=5
i	.	8r	8r	8r	4gg\
ib	.	8B-\	8g\	8d/	.
viio	.	8A\L	8f#\L	8cc/L	8aa\L
i	.	8G\J	8g\J	8b-/J	16.bb-\L
.	.	.	.	.	32dd\JJk
=6	=6	=6	=6	=6	=6
ivm7	.	4c\	4g\	8b-/L	[4ee-\
.	.	.	.	16.cc/L	.
.	.	.	.	32g/JJk	.
-VII7	.	4F/	8cc\L	4a/	8ee-\L]
.	.	.	8a\J	.	16.ccc\L
.	.	.	.	.	32ee-\JJk
=7	=7	=7	=7	=7	=7
VIb	Appoggiaturas in the first violin and viola	8G/L	8f/L	8b-/L	8dd/L
VI	.	8E-/J	8e-/J	8g/J	16.ee-/L
.	.	.	.	.	32cc/JJk
V/III[-VII]	This time the VII acts like a dominant to the relative major	8F/L	8d/L	8f/L	8b-/L
V7/III[-VII7]	Strengthened with the seventh	8F/J	16.c/L	8e-/J	16.a/L
.	.	.	64e-/LL	.	64cc/LL
.	.	.	64c/JJJJ	.	64a/JJJJ
=8	=8	=8	=8	=8	=8
III	Finishing the cadence in the relative major	8B-/L	4B-/	4d/	4b-/
.	.	8F/	.	.	.
.	.	8BB-/J	8r	8r	8r
=:|!|:	=:|!|:	=:|!|:	=:|!|:	=:|!|:	=:|!|:
.	.	8B-\	8r	8r	8dd/
=9	=9	=9	=9	=9	=9
III	.	8r	8r	8r	4ff\
viioD7/iv	.	8B\	8d/	8a-/	.
iv	.	8c\L	8e-/L	8g/L	8ee-/L
v	.	8d\J	8f/J	8f/J	8dd/J
=10	=10	=10	=10	=10	=10
ivb	.	8e-\L	8g\L	8e-/L	8cc/L
viioD7c/iv	.	8f\	8f\	8a-/	16.dd/L
ivb	.	.	.	.	32b/JJk
.	.	8e-'\J	8e-'\J	8g'/J	8cc/L
.	.	8r	8r	8r	8gg/J
=11	=11	=11	=11	=11	=11
.	.	8r	8r	8r	8.gg\L
Gn	.	8e-'\	8b-'\	8cc#/	.
.	Re-arranging the german augmented sixth	.	.	.	16aa\Jk
.	.	8e-'\L	8b-'\L	8cc#/L	8bb-\L
.	.	8e-'\J	8b-'\J	8g/J	8cc#\J
=12	=12	=12	=12	=12	=12
V	Three appoggiaturas, getting rid of the parallel fifths by moving the bass first, probably?	4.d\	4b-\	4g/	4cc#/
.	.	.	8a\L	8f#/L	8dd\L
V/iv	.	8B\	[8g\J	24dd/L	8ddd\J
.	.	.	.	24gg/	.
.	.	.	.	24ff/JJ	.
=13	=13	=13	=13	=13	=13
Nb	Quickly replacing the subdominant with a Neapolitan chord	2c\	8g\L]	4.ee-\	8ddd\
.	.	.	8a-\J	.	4ccc\
.	.	.	[4a-\	.	.
.	.	.	.	24ee-\LL	8eee-\
.	.	.	.	24aa-\	.
.	.	.	.	24gg\JJ	.
=14	=14	=14	=14	=14	=14
viioD7b/iv	.	2d\	8a-\L]	4.ff\	16eee-\LL
.	.	.	.	.	16ddd\JJ
.	.	.	8b\J	.	4ddd\
.	.	.	[4b\	.	.
.	.	.	.	16aa-\LL	[8fff\
.	.	.	.	16gg\JJ	.
=15	=15	=15	=15	=15	=15
ivb	.	[2e-\	8b\L]	[2gg\	8fff\]
.	.	.	8cc\J	.	4eee-\
.	.	.	[4cc\	.	.
.	.	.	.	.	32eee-\LLL
.	.	.	.	.	32fff\
.	.	.	.	.	32eee-\
.	.	.	.	.	32fff\JJJ
=16	=16	=16	=16	=16	=16
Gn	Another german augmented sixth chord	2e-\]	8cc\L]	8gg\L]	[2ggg\
.	.	.	8cc#'\J	32gg\LL	.
.	.	.	.	32aa\	.
.	.	.	.	32gg\	.
.	.	.	.	32aa\JJJ	.
.	.	.	8cc#'\L	8bb-'\L	.
.	.	.	8cc#'\J	[8bb-\J	.
=17	=17	=17	=17	=17	=17
ic	.	4d\	4dd\	8bb-\]	8ggg\]
*	*	*	*	*	*
.	.	.	.	4gg\	4bb-\
V7	.	4D/	4d/	.	.
.	.	.	.	16.aa\LL	16.ccc\LL
.	.	.	.	32ff#\JJk	32aa\JJk
=18	=18	=18	=18	=18	=18
i	.	8G/L	4g\	4gg\	4gg\
.	.	8D/J	.	.	.
.	.	8GG'/	8r	8r	8r
=:|!|:	=:|!|:	=:|!|:	=:|!|:	=:|!|:	=:|!|:
V	.	8r	8r	8dd/	8r
=19	=19	=19	=19	=19	=19
i	First sixteenth note is an appoggiatura	8r	8r	16ff#\LL	2r
.	.	.	.	16gg'\JJ	.
ib	.	8B-'\	16r	16r	.
.	.	.	16dd'\	16ddd'\	.
viiob	.	8A'\L	16r	16r	.
.	.	.	16ff#'\	16ccc'\	.
i	.	8G'\J	16r	16r	.
.	.	.	16gg'\	16bb-'\	.
=20	=20	=20	=20	=20	=20
viioD7c	.	8c\L	8ee-\L	16aa\LL	4r
.	.	.	.	16ff#\	.
ib	.	8B-\J	8dd\J	16gg\	.
.	.	.	.	16dd\JJ	.
.	.	8r	8r	16ee-/LL	8r
.	.	.	.	32dd/L	.
.	.	.	.	32cc/	.
viioD7c	.	8c\	8e-/	32b-/	8a/
.	.	.	.	32a/	.
.	.	.	.	32g/	.
.	.	.	.	32f#/JJJ	.
=21	=21	=21	=21	=21	=21
ib	.	8B-\L	8d'/	16g'/LL	8dd'/L
.	.	.	.	16ff#/	.
VI	.	8e-'\J	16r	16gg/	8g'/J
.	.	.	16g'\	16g'/JJ	.
iiom7b	.	8c'\L	16r	16r	8ee-'/L
.	.	.	16g'\	16a'/	.
V7	.	8d'\J	16r	16r	8d'/J
.	.	.	16f#'\	16cc'/	.
=22	=22	=22	=22	=22	=22
i	Appoggiatura G in the first violin	8r	16G/LL	32cc/LLL	4g/
.	.	.	.	32b-/	.
.	.	.	32A/L	32a/	.
.	.	.	32B-/	32g/JJ	.
.	.	8G\	32c/	8g'/J	.
.	.	.	32d/	.	.
.	.	.	32e/	.	.
.	.	.	32f#/JJJ	.	.
.	.	8GG'/	4g'\	8r	4r
.	.	8r	.	8dd/	.
=23	=23	=23	=23	=23	=23
i	.	8r	8r	16ff#\LL	8r
.	.	.	.	16gg'\JJ	.
ib	.	8B-'\	16r	16r	8g'/
.	.	.	16dd'\	16ddd'\	.
viiob	.	8A'\L	16r	16r	8a'/L
.	.	.	16ff#'\	16ccc'\	.
i	.	8G'\J	16r	16r	8b-'/J
.	.	.	16gg'\	16bb-'\	.
=24	=24	=24	=24	=24	=24
iv7	.	4c\	32gg\LLL	[4eee-'\	8b-'/L
.	.	.	32ff\	.	.
.	.	.	32ee-\	.	.
.	.	.	32dd\	.	.
.	.	.	32ee-\	.	8g'/J
.	.	.	32dd\	.	.
.	.	.	32cc\	.	.
.	.	.	32b-\JJJ	.	.
VII	.	8f\L	4a\	32eee-\LLL]	8c'/L
.	.	.	.	32ddd\	.
.	.	.	.	32ccc\	.
.	.	.	.	32bb-\	.
.	.	8F\J	.	32aa\	8cc'/J
.	.	.	.	32gg\	.
.	.	.	.	32ff\	.
.	.	.	.	32ee-\JJJ	.
=25	=25	=25	=25	=25	=25
III	.	8B-\L	16b-\LL	16dd\LL	4dd/
.	.	.	16dd'\JJ	16bb-'\JJ	.
VIm7	.	8E-'\J	16r	16r	.
.	.	.	32ee-\LLL	32gg\LLL	.
.	.	.	32cc\JJJ	32ee-\JJJ	.
IIIc	.	8F'/L	16r	16r	4r
.	.	.	16b-'\	16dd'/	.
V7/III	.	8F'/J	16r	16r	.
.	.	.	32cc\LLL	32ee-/LLL	.
.	.	.	32a\JJJ	32cc/JJJ	.
=26	=26	=26	=26	=26	=26
III	Appoggiaturas in second violin and viola	8BB-/L	4a\	4cc/	4r
.	.	8B-/J	.	.	.
.	.	8BB-'/	8b-'\	8b-/	8r
=:|!	=:|!	=:|!	=:|!	=:|!	=:|!
=	=	=	=	=	=
.	.	8r	8r	8dd/	8r
=27	=27	=27	=27	=27	=27
III	Keeping the same harmony than previously	8r	8r	16ff\LL	2r
.	.	.	.	16dd'\JJ	.
viio/iv	.	8B'\	16r	16r	.
.	.	.	16ff'\	16ddd'\	.
iv	.	8c'\L	16r	16r	.
.	.	.	16ee-'\	16eee-'\	.
viioD7b/iv	.	8d'\J	16r	16r	.
.	.	.	16aa-'\	16bb'\	.
=28	=28	=28	=28	=28	=28
ivb	.	4e-'\	8gg'\	32ccc\LLL	2r
.	.	.	.	32gg\	.
.	.	.	.	32aa\	.
.	.	.	.	32bb\	.
.	.	.	8r	32ccc\	.
.	.	.	.	32ddd\	.
.	.	.	.	32eee-\	.
.	.	.	.	32fff\JJJ	.
ivb[VI]	.	4E-'/	16g\LL	[4ggg\	.
.	.	.	32a\L	.	.
.	.	.	32b\	.	.
.	.	.	32cc\	.	.
.	.	.	32dd\	.	.
.	.	.	32ee-\	.	.
.	.	.	32ff\JJJ	.	.
=29	=29	=29	=29	=29	=29
VI	.	2e-\	32gg\LLL	4ggg\_	[2b-/
.	.	.	32ff#\	.	.
.	.	.	32gg\	.	.
.	.	.	32ff#\	.	.
.	.	.	32gg\	.	.
.	.	.	32ff\	.	.
.	.	.	32ee-\	.	.
.	.	.	32dd\JJJ	.	.
Gn	.	.	4cc#\	16ggg\LL]	.
.	.	.	.	16bb-\	.
.	.	.	.	16aa\	.
.	.	.	.	16gg\JJ	.
=30	=30	=30	=30	=30	=30
ic	.	4.d\	4dd\	4gg\	4b-/]
V	.	.	4r	8ff#'\	8a'/
Vb/iv	.	8B\	.	16r	8r
.	.	.	.	16dd'/	.
=31	=31	=31	=31	=31	=31
iv	Appoggiatura in the second violin	8c'/L	8r	16ff\LL	2r
.	.	.	.	16ee-'\JJ	.
.	.	8C'/J	16r	8r	.
.	.	.	16g'\	.	.
Nb	.	8r	16b-\LL	8.r	.
.	.	.	16a-'\JJ	.	.
.	.	8c\	8r	.	.
.	.	.	.	16ee-'\	.
=32	=32	=32	=32	=32	=32
viioD7b/iv	.	8d'\L	8r	16gg\LL	2r
.	.	.	.	16ff'\JJ	.
*	*	*	*	*	*
.	.	8D\J	16r	8r	.
.	.	.	16a-'\	.	.
.	.	8r	16cc\LL	8.r	.
.	.	.	16b'\JJ	.	.
.	.	8d\	8r	.	.
.	.	.	.	16ff'\	.
=33	=33	=33	=33	=33	=33
iv	.	8e-'\L	8r	16aa-\LL	2r
.	.	.	.	16gg'\JJ	.
.	.	8E-\J	16r	8r	.
.	.	.	16b'\	.	.
.	.	8r	16dd\LL	8.r	.
.	.	.	16cc'\JJ	.	.
.	.	8e-\	8r	.	.
.	.	.	.	16gg'\	.
=34	=34	=34	=34	=34	=34
.	.	8E-'/	4r	16ccc\LL	4r
.	.	.	.	16bb-\	.
.	.	8r	.	16aa\	.
.	.	.	.	16gg\JJ	.
viioD7b/V	.	8e-'\L	16r	16r	8cc#'/L
.	.	.	16b-'\	16gg'\	.
.	.	8e-'\J	16r	16r	8cc#'/J
.	.	.	16b-'\	16gg'\	.
=35	=35	=35	=35	=35	=35
ic	.	4d\	16gg\LL	16bb-\LL	4dd'/
.	.	.	16g\	16b-\	.
.	.	.	16g'\	16b-'\	.
.	.	.	16g'\JJ	16b-'\JJ	.
.	.	4D/	16b-\LL	16dd/LL	4r
.	.	.	16a\	16cc/	.
.	.	.	16g\	16b-/	.
.	.	.	16f#\JJ	16a/JJ	.
=36	=36	=36	=36	=36	=36
V	Pedal D in the bass	8G/L	4f#\	4a/	4r
.	.	8D/J	.	.	.
i	.	8GG'/	8g'\	8g/	8r
=:|!|:	=:|!|:	=:|!|:	=:|!|:	=:|!|:	=:|!|:
V	.	8d\	8r	8r	8r
=37	=37	=37	=37	=37	=37
i	.	4g\	8r	8r	8r
.	.	.	8B-/	8d/	8d/
viio	.	8f#\L	8A/L	8a/L	8cc/L
i	.	8g\J	8G/J	8b-/J	8b-/J
=38	=38	=38	=38	=38	=38
viioD7d	.	8e-\L	8c/L	8f#/L	8a/L
ic	.	8d\J	8B-/J	8g/J	8g/J
V	.	24D\LL	8r	8r	8r
.	.	24F#\	.	.	.
.	.	24A'\	.	.	.
V7	.	24d\	8c/	[8d/	8f#/
.	.	24f#\	.	.	.
.	.	24a'\JJ	.	.	.
=39	=39	=39	=39	=39	=39
VI	.	8.g\L	8B-/L	8d/]	4g/
.	.	.	8e-/J	4g/	.
.	.	32a\LL	.	.	.
.	.	32b-\JJJ	.	.	.
viioc	.	16cc\LL	8c/L	.	4a/
.	.	16cc\	.	.	.
.	.	16b-\	8d/J	8f#/	.
.	.	16a\JJ	.	.	.
=40	=40	=40	=40	=40	=40
ib	.	32b-\LLL	8r	8g'/	8b-'/
.	.	32a\	.	.	.
.	.	32g\	.	.	.
.	.	32a\JJ	.	.	.
.	.	8g'\J	8g\	8r	8r
.	.	8r	8G'/	4r	4r
V	.	8d\	8r	.	.
=41	=41	=41	=41	=41	=41
i	.	4g\	8r	8r	8r
.	.	.	8B-/	8d/	8d/
viiob	.	8a\L	8A/L	8f#/L	8cc/L
i	.	16.b-\L	8G/J	8g/J	8b-/J
.	.	32d\JJk	.	.	.
=42	=42	=42	=42	=42	=42
ivm7	.	8e-\L	4c/	4g/	4b-/
.	.	[8cc\J	.	.	.
V7/III	.	24cc\LL]	4F/	8.e-/L	8a/L
.	.	24b-\	.	.	.
.	.	24a\	.	.	.
.	.	24g\	.	.	8cc/J
.	.	24f'\	.	.	.
.	.	.	.	16c/Jk	.
.	.	24e-'\JJ	.	.	.
=43	=43	=43	=43	=43	=43
IIIb	.	24d\LL	8B-/L	8d/L	8f/L
.	.	24e-\	.	.	.
.	.	24f\	.	.	.
ivc	.	24G\	8e-/J	8g/J	16.g/L
.	.	24e-\	.	.	.
.	.	24c'\JJ	.	.	.
.	.	.	.	.	32ee-/JJk
III	.	24B-/LL	8f/L	8f/L	8dd/L
.	.	24F/	.	.	.
.	.	24D/	.	.	.
V7/III	.	24FF/	8F/J	8e-/J	8cc/J
.	.	24B-/	.	.	.
.	.	24A/JJ	.	.	.
=44	=44	=44	=44	=44	=44
III	.	24BB-'/LL	4B-/	4d/	4b-/
.	.	24D/	.	.	.
.	.	24F/	.	.	.
.	.	24B-/	.	.	.
.	.	24F'/	.	.	.
.	.	24D'/JJ	.	.	.
.	.	8BB-/	8r	8r	8r
=:|!|:	=:|!|:	=:|!|:	=:|!|:	=:|!|:	=:|!|:
.	.	8d\	8r	8r	8r
=45	=45	=45	=45	=45	=45
viioc/iv	.	4f\	8r	8r	4r
.	.	.	8B/	8d/	.
ivb	.	8e-\L	8c/L	8e-/L	8r
viioD7/iv	.	8B\J	8d/J	8f/J	16a-/LL
.	.	.	.	.	16f/JJ
=46	=46	=46	=46	=46	=46
iv	.	16c\LL	4c/	4e-/	4e-/
.	.	32d\L	.	.	.
.	.	32e-\	.	.	.
.	.	32f\	.	.	.
.	.	32g\	.	.	.
.	.	32a\	.	.	.
.	.	32b\JJJ	.	.	.
.	.	8cc\L	4r	4r	4r
.	.	8dd\J	.	.	.
=47	=47	=47	=47	=47	=47
iioc	.	4ee-\	8r	8r	8r
.	.	.	8c'/	8e-'/	8a'/
.	.	16dd\LL	8c'/L	8e-'/L	8a'/L
.	.	16cc\	.	.	.
.	.	16b-\	8c'/J	8e-'/J	8a'/J
.	.	16a\JJ	.	.	.
=48	=48	=48	=48	=48	=48
i	.	8.g\L	4.d/	4d/	4b-/
.	.	32a\LL	.	.	.
.	.	32g\JJJ	.	.	.
Vb	.	8f#'\L	.	8dd/L	8a/L
Vb/iv	.	8B\J	8B/	[8g/J	8dd/J
=49	=49	=49	=49	=49	=49
(iv)	.	16c/LL	2c/	8g/L]	2ee-\
.	.	16C/	.	.	.
iv/iv	.	16F/	.	8a-/J	.
.	.	16A-/JJ	.	.	.
.	.	16c\LL	.	[4a-/	.
.	.	16e-'\	.	.	.
.	.	16a-'\	.	.	.
.	.	16c\JJ	.	.	.
=50	=50	=50	=50	=50	=50
(v)	.	16d\LL	2d/	8a-/L]	2ff\
.	.	16D\	.	.	.
viioD7c/iv	.	16F\	.	8b/J	.
.	.	16A-\JJ	.	.	.
.	.	16B\LL	.	[4b/	.
.	.	16d'\	.	.	.
.	.	16f'\	.	.	.
.	.	16d\JJ	.	.	.
=51	=51	=51	=51	=51	=51
(VI)	.	16e-\LL	[2e-/	8b/L]	[2gg\
.	.	16E-'\	.	.	.
ivc	.	16G'\	.	8cc/J	.
.	.	16c'\JJ	.	.	.
.	.	16e-'\LL	.	8cc'/L	.
.	.	16d\	.	.	.
.	.	16e-\	.	8cc'/J	.
.	.	16f\JJ	.	.	.
=52	=52	=52	=52	=52	=52
Gn	.	16g\LL	2e-/]	4.cc#/	2gg\_
.	.	16f#\	.	.	.
.	.	16g\	.	.	.
.	.	16a\JJ	.	.	.
.	.	16b-\LL	.	.	.
.	.	16b\	.	.	.
.	.	16cc\	.	16g/LL	.
.	.	16cc#\JJ	.	16b-/JJ	.
=53	=53	=53	=53	=53	=53
ic	The disposition of the augmented sixth looks strange because the voices overlap	8dd\	4d/	8b-/L	8gg\]
.	.	4g\	.	8d/J	4b-/
.	.	.	4d/	8r	.
V7b	.	16a\LL	.	8d/	16cc/LL
.	.	16f#\JJ	.	.	16a/JJ
=54	=54	=54	=54	=54	=54
.	Anticipation of D natural in the viola	4f#\	8G/L	4cc/	4a/
.	.	.	8g/J	.	.
i	.	8g\	8G'/	8b-'/	8g'/
=:|!|:	=:|!|:	=:|!|:	=:|!|:	=:|!|:	=:|!|:
V	.	8r	8r	8r	8dd/
=55	=55	=55	=55	=55	=55
i	.	8r	8r	8r	24g\LL
.	.	.	.	.	24b-\
.	.	.	.	.	24dd'\
ib	.	8B-\	8g\	8dd/	24gg'\
.	.	.	.	.	24bb-'\
.	.	.	.	.	24ddd'\JJ
V7c	.	8A\L	8d'/L	8ff#\L	24ccc\LL
.	.	.	.	.	24aa\
.	.	.	.	.	24ff#'\
i	.	8G\J	8d'/J	8gg\J	24gg\
.	.	.	.	.	24bb-\
.	.	.	.	.	24dd'\JJ
=56	=56	=56	=56	=56	=56
iv	.	8c\L	8c/L	8g'/L	24ee-\LL
.	.	.	.	.	24ff#\
.	.	.	.	.	24gg\
ib	.	8B-\J	8B-/J	8g'/J	24dd\
.	.	.	.	.	24ff#\
.	.	.	.	.	24gg\JJ
?	I do not know what is the best function for this	8r	8r	8r	24cc\LL
.	.	.	.	.	24ee-\
.	.	.	.	.	24ff#\
viioc	.	8c\	8a\	8f#/	24aa\
.	.	.	.	.	24ccc\
.	.	.	.	.	24eee-\JJ
=57	=57	=57	=57	=57	=57
ib	.	8B-\L	8b-\L	8g/	24ddd\LL
.	.	.	.	.	24ggg\
.	.	.	.	.	24fff#'\
VI	.	8e-\J	8g\J	4gg\	24ggg\
.	.	.	.	.	24gg\
.	.	.	.	.	24gg'\JJ
iv	.	8c\L	8e-/L	.	24aa\LL
.	.	.	.	.	24bb-\
.	.	.	.	.	24ccc'\
V	.	8d\J	8d/J	8ff#\	24eee-'\
.	.	.	.	.	24ddd'\
.	.	.	.	.	24ccc'\JJ
=58	=58	=58	=58	=58	=58
i	.	8G/L	4d/	4gg\	24bb-\LL
.	.	.	.	.	24ddd\
.	.	.	.	.	24ff#'\
.	.	8GG/J	.	.	24gg\
.	.	.	.	.	24bb-\
.	.	.	.	.	24dd'\JJ
.	.	4r	4r	4r	24b-/LL
.	.	.	.	.	24dd/
.	.	.	.	.	24f#'/
.	.	.	.	.	24g'/
.	.	.	.	.	24b-'/
.	.	.	.	.	24dd'/JJ
=59	=59	=59	=59	=59	=59
.	.	8r	8r	8r	24gg\LL
.	.	.	.	.	24dd\
.	.	.	.	.	24ddd'\
ib	.	8B-\	8g\	8dd/	24ddd'\
.	.	.	.	.	24ddd'\
.	.	.	.	.	24ddd'\JJ
Vc	.	8A\L	8a\L	8ff#\L	24ddd\LL
.	.	.	.	.	24ccc\
.	.	.	.	.	24ccc'\
i	.	8G\J	8b-\J	8gg\J	24ccc\
.	.	.	.	.	24bb-\
.	.	.	.	.	24bb-'\JJ
=60	=60	=60	=60	=60	=60
VIc	.	4c\	4b-\	4gg\	24bb-\LL
.	.	.	.	.	24eee-\
.	.	.	.	.	24eee-\
.	.	.	.	.	24eee-\
.	.	.	.	.	24ddd\
.	.	.	.	.	24eee-\JJ
V7/III	.	4F/	8a\L	4aa\	24eee-\LL
.	.	.	.	.	24cccc\
.	.	.	.	.	24cccc\
.	.	.	8cc\J	.	24cccc\
.	.	.	.	.	24aaa\
.	.	.	.	.	24eee-\JJ
=61	=61	=61	=61	=61	=61
III	.	8B-'\L	8b-'\L	8bb-\	24ddd\LL
.	.	.	.	.	24bbb-\
.	.	.	.	.	24fff\
VI	.	8E-\J	8e-\J	4bb-\	24ggg\
.	.	.	.	.	24eee-\
.	.	.	.	.	24ccc\JJ
V/III	.	8F/L	8f\L	.	8bb-\L
.	.	8F/J	8f\J	8aa\	8ccc\J
=62	=62	=62	=62	=62	=62
III	.	8B-\L	4B-/	4bb-\	4bb-\
.	.	8F\J	.	.	.
.	.	8BB-'/	8r	8r	8r
=:|!|:	=:|!|:	=:|!|:	=:|!|:	=:|!|:	=:|!|:
V	.	8r	8r	8r	8dd/
=63	=63	=63	=63	=63	=63
.	.	8r	8r	8r	24ff\LL
.	.	.	.	.	24ddd\
.	.	.	.	.	24ccc\
viioD7/iv	.	8B\	8B/	8d/	24bb\
.	.	.	.	.	24aa-\
.	.	.	.	.	24gg\JJ
iv	.	8c\L	8c/L	8e-/L	24ff/LL
.	.	.	.	.	24ee-/
.	.	.	.	.	24dd/
viioD7b/iv	.	8d\J	8d/J	8f/J	24cc/
.	.	.	.	.	24b/
.	.	.	.	.	24a-/JJ
=64	=64	=64	=64	=64	=64
ivb	.	8e-\L	8e-/	8e-/	24g/LL
.	.	.	.	.	24b/
.	.	.	.	.	24cc/
iv/iv	.	8f\J	8r	8r	24a-/
.	.	.	.	.	24b/
.	.	.	.	.	24cc/JJ
iv	.	8e-\	4r	4r	24g\LL
.	.	.	.	.	24ggg\
.	.	.	.	.	24fff\
.	.	8r	.	.	24eee-\
.	.	.	.	.	24ddd\
.	.	.	.	.	24ccc\JJ
=65	=65	=65	=65	=65	=65
.	.	4r	4r	4r	24bb-\LL
.	.	.	.	.	24aa\
.	.	.	.	.	24gg\
.	.	.	.	.	24ff\
.	.	.	.	.	24ee-\
.	.	.	.	.	24dd\JJ
viioD7b/V	.	4e-\	4g\	4cc#/	24cc#\LL
.	.	.	.	.	24bb-\
.	.	.	.	.	24aa\
.	.	.	.	.	24bb-\
.	.	.	.	.	24aa\
.	.	.	.	.	24gg\JJ
=66	=66	=66	=66	=66	=66
V	.	4.d\	4.a\	2dd/	24ff#\LL
.	.	.	.	.	24gg\
.	.	.	.	.	24aa\
.	.	.	.	.	24gg\
.	.	.	.	.	24ff#\
.	.	.	.	.	24ee-\JJ
.	.	.	.	.	24dd\LL
.	.	.	.	.	24ddd\
.	.	.	.	.	24ddd\
Vb/iv	.	8B\	[8g\	.	24ddd\
.	.	.	.	.	24ddd\
.	.	.	.	.	24ddd\JJ
=67	=67	=67	=67	=67	=67
Nb	.	2c\	8g\L]	2ee-\	24ddd\LL
.	.	.	.	.	24dd\
.	.	.	.	.	24ee-\
.	.	.	8a-\J	.	24ee-\
.	.	.	.	.	24g\
.	.	.	.	.	24a-\JJ
.	.	.	[4a-\	.	24a-\LL
.	.	.	.	.	24eee-\
.	.	.	.	.	24eee-\
.	.	.	.	.	24eee-\
.	.	.	.	.	24eee-\
.	.	.	.	.	24eee-\JJ
=68	=68	=68	=68	=68	=68
viioD7b/iv	.	2d\	8a-\L]	2ff\	24eee-\LL
.	.	.	.	.	24ee\
.	.	.	.	.	24ff\
.	.	.	8b\J	.	24ff\
.	.	.	.	.	24a\
.	.	.	.	.	24b\JJ
.	.	.	[4b\	.	24b\LL
.	.	.	.	.	24fff\
.	.	.	.	.	24fff\
.	.	.	.	.	24fff\
.	.	.	.	.	24fff\
.	.	.	.	.	24fff\JJ
=69	=69	=69	=69	=69	=69
ivb	.	2e-\	8b\L]	[2gg\	24fff\LL
.	.	.	.	.	24ff#\
.	.	.	.	.	24gg\
.	.	.	8cc\J	.	24gg\
.	.	.	.	.	24b\
.	.	.	.	.	24cc\JJ
.	.	.	4cc\	.	24cc\LL
.	.	.	.	.	24ggg\
.	.	.	.	.	24ggg\
.	.	.	.	.	24ggg\
.	.	.	.	.	24ggg\
.	.	.	.	.	24ggg\JJ
=70	=70	=70	=70	=70	=70
Gn	.	2e-\	2cc#\	2gg\_	24ggg\LL
.	.	.	.	.	24gg\
.	.	.	.	.	24aa\
.	.	.	.	.	24bb-\
.	.	.	.	.	24aa\
.	.	.	.	.	24gg\JJ
.	.	.	.	.	24ee-\LL
.	.	.	.	.	24gg\
.	.	.	.	.	24bb-\
.	.	.	.	.	24cc#\
.	.	.	.	.	24gg\
.	.	.	.	.	24bb-\JJ
=71	=71	=71	=71	=71	=71
ic	.	8d\L	8dd\L	8gg\]	4dd/
.	.	8d\J	8dd\J	4g/	.
V	.	8D/L	8d/L	.	8.aa\L
.	.	8D/J	8d/J	8f#/	.
.	.	.	.	.	32gg\LL
.	.	.	.	.	32aa\JJJ
=72	=72	=72	=72	=72	=72
i	.	8G/L	4g\	4g/	4gg\
.	.	8D/J	.	.	.
.	.	8GG/	8r	8r	8r
=:|!|:	=:|!|:	=:|!|:	=:|!|:	=:|!|:	=:|!|:
.	.	8r	8r	8r	8dd/
=73	=73	=73	=73	=73	=73
i	Repetition of the main theme until mm. 89	8r	8r	8r	4gg\
ib	.	8B-\	8d/	8g/	.
viiob	.	8A\L	8c/L	8f#/L	8aa\L
i	.	8G\J	8B-/J	8g/J	8bb-\J
=74	=74	=74	=74	=74	=74
V7d	.	8c\L	4d/	8a/L	8ff#\L
ib	.	8B-\J	.	8b-/J	8gg\J
VI	.	8r	8r	8r	4ee-\
viioD7c	.	8c\	8a\	8f#/	.
=75	=75	=75	=75	=75	=75
ib	.	8B-\L	8b-\L	8g/	8dd/L
VI	.	8e-\J	8g\J	4g/	16.gg/L
.	.	.	.	.	32g/JJk
iio7b	.	8c\L	8e-/L	.	8.a/L
V7b	.	8d\J	8d/J	8f#/	.
.	.	.	.	.	32b-/LL
.	.	.	.	.	32cc/JJJ
=76	=76	=76	=76	=76	=76
i	.	8r	4G/	4g/	32cc/LLL
.	.	.	.	.	32b-/
.	.	.	.	.	32a/
.	.	.	.	.	32g/JJ
.	.	8G\	.	.	8g/J
.	.	8GG/	4r	4r	8r
V	.	8r	.	.	8dd/
=77	=77	=77	=77	=77	=77
i	.	8r	8r	8r	4gg\
ib	.	8B-\	8g\	8d/	.
viio	.	8A\L	8f#\L	8cc/L	8aa\L
i	.	8G\J	8g\J	8b-/J	16.bb-\L
.	.	.	.	.	32dd\JJk
=78	=78	=78	=78	=78	=78
ivm7	.	4c\	4g\	8b-/L	[4ee-\
.	.	.	.	16.cc/L	.
.	.	.	.	32g/JJk	.
-VII7	.	4F/	8cc\L	4a/	8ee-\L]
.	.	.	8a\J	.	16.ccc\L
.	.	.	.	.	32ee-\JJk
=79	=79	=79	=79	=79	=79
III	.	8B-\L	8f/L	8b-/L	8dd/L
VI	.	8E-\J	8e-/J	8g/J	16.ee-/L
.	.	.	.	.	32b-/JJk
V/III[-VII]	.	8F/L	8d/L	8f/L	8.a/L
V7/III[-VII7]	.	8F/J	16.c/L	8e-/J	.
.	.	.	.	.	32cc/LL
.	.	.	64e-/LL	.	32a/JJJ
.	.	.	64c/JJJJ	.	.
=80	=80	=80	=80	=80	=80
III	.	8B-\L	4B-/	4d/	4b-/
.	.	8F\J	.	.	.
.	.	8BB-/	4r	4r	8r
.	.	8r	.	.	8dd/
=81	=81	=81	=81	=81	=81
III	.	8r	8r	8r	4ff\
viioD7/iv	.	8B\	8d/	8a-/	.
iv	.	8c\L	8e-/L	8g/L	8ee-/L
v	.	8d\J	8f/J	8f/J	8dd/J
=82	=82	=82	=82	=82	=82
ivb	.	8e-\L	8g\L	8e-/L	8cc/L
viioD7c/iv	.	8f\J	8f\J	8a-/J	16.dd/L
.	.	.	.	.	32b/JJk
ivb	.	8e-\	8e-/	8g/	8cc/L
.	.	8r	8r	8r	8gg/J
=83	=83	=83	=83	=83	=83
.	.	8r	8r	8r	8.gg\L
Gn	.	8e-\	8b-\	8cc#/	.
.	.	.	.	.	16aa\Jk
.	.	8e-\L	8b-\L	8cc#/L	8bb-\L
.	.	8e-\J	8b-\J	8g/J	8cc#\J
=84	=84	=84	=84	=84	=84
V	.	4.d\	4b-\	4g/	4cc#/
.	.	.	8a\L	8f#/	8dd\L
V/iv	.	8B\	[8g\J	24dd\LL	8ddd\J
.	.	.	.	24gg\	.
.	.	.	.	24ff\JJ	.
=85	=85	=85	=85	=85	=85
Nb	.	2c\	8g\L]	4.ee-\	8ddd\
.	.	.	8a-\J	.	4ccc\
.	.	.	[4a-\	.	.
.	.	.	.	24ee-\LL	8eee-\
.	.	.	.	24aa-\	.
.	.	.	.	24gg\JJ	.
=86	=86	=86	=86	=86	=86
viioD7b/iv	.	2d\	8a-\L]	4.ff\	16eee-\LL
.	.	.	.	.	16ddd\JJ
.	.	.	8b\J	.	4ddd\
.	.	.	[4b\	.	.
.	.	.	.	16aa-\LL	[8fff\
.	.	.	.	16gg\JJ	.
=87	=87	=87	=87	=87	=87
ivb	.	[2e-\	8b\L]	[2gg\	8fff\]
.	.	.	8cc\J	.	4eee-\
.	.	.	[4cc\	.	.
.	.	.	.	.	32eee-\LLL
.	.	.	.	.	32fff\
.	.	.	.	.	32eee-\
.	.	.	.	.	32fff\JJJ
=88	=88	=88	=88	=88	=88
Gn	.	2e-\]	8cc\L]	8gg\L]	2ggg\
.	.	.	8cc#\J	32gg\LL	.
.	.	.	.	32aa\	.
.	.	.	.	32gg\	.
.	.	.	.	32aa\JJJ	.
.	.	.	8cc#\L	8bb-\L	.
.	.	.	8cc#\J	8bb-\J	.
=89	=89	=89	=89	=89	=89
ic	.	4d\	4dd\	4.ggg\	4.bbb-\
V	.	4D/	4d/	.	.
.	.	.	.	8fff#\	8aaa\
=90	=90	=90	=90	=90	=90
.	.	2r	2r	8eee-\L	8ggg\L
.	.	.	.	8ddd\J	8fff#\J
.	.	.	.	8ccc\L	8eee-\L
.	.	.	.	8bb-\J	8ddd\J
=91	=91	=91	=91	=91	=91
.	.	4r	4r	8aa\L	8ccc\L
.	.	.	.	8gg\J	8bb-\J
.	.	8r	8r	8ff#\L	8aa\L
viioc	.	[8cc\	[8ee-\	8ff#\J	8aa\J
=92	=92	=92	=92	=92	=92
.	.	8cc\L]	8ee-\L]	4.ff\	4.aa\
.	.	8b-\J	8dd\J	.	.
.	.	8a\L	8cc\L	.	.
.	.	8g\J	8b-\J	8gg\	8bb-\
=93	=93	=93	=93	=93	=93
viioD7	.	2f#\	4.a\	8aa\L	8ccc\L
.	.	.	.	8ccc\J	8ee-\J
.	.	.	.	4ccc\	8dd\L
.	.	.	[8dd\	.	8ccc\J
=94	=94	=94	=94	=94	=94
i	.	2g\	4dd\]	2bb-\	8bb-\L
.	.	.	.	.	8dd\J
VI	.	.	[4ee-\	.	8ee-\L
.	.	.	.	.	8bb-\J
=95	=95	=95	=95	=95	=95
ii7/VI	Very strange harmony in this section 	4f\	4ee-\]	2aa-\	8aa-\L
.	.	.	.	.	8cc\J
V7/VI	.	4B-\	[4dd\	.	8dd\L
.	.	.	.	.	8aa\J
=96	=96	=96	=96	=96	=96
ivb	.	2e-\	4dd\]	2gg\	8gg/L
*	*	*	*	*	*
.	.	.	.	.	8b/J
.	.	.	[4cc\	.	8cc/L
.	.	.	.	.	8gg/J
=97	=97	=97	=97	=97	=97
ivc/iv	.	4d\	4cc\]	2ff\	8ff/L
.	.	.	.	.	8a-/J
V7b/iv	.	4B\	8dd\L	.	8g/L
.	.	.	[8g\J	.	8ff/J
=98	=98	=98	=98	=98	=98
iv	.	2c\	4g\]	2ee-\	8ee-/L
.	.	.	.	.	8g/J
Nb	.	.	[4a-\	.	8a-/L
.	.	.	.	.	8ee-/J
=99	=99	=99	=99	=99	=99
iiim7	.	4B-\	4a-\]	2dd-/	8dd-/L
.	.	.	.	.	8f/J
VI7	.	4E-/	[4g\	.	8g/L
.	.	.	.	.	8dd-/J
=100	=100	=100	=100	=100	=100
N	.	4A-\	4g\]	2cc/	8cc/L
.	.	.	.	.	8e/J
V7b/III	.	4A\	[4f\	.	8f/L
.	.	.	.	.	8ee-/J
=101	=101	=101	=101	=101	=101
III7	.	4B-\	4f\]	2dd/	8dd/L
.	.	.	.	.	8a-/J
V7b/iv	.	4B\	[4g\	.	8g/L
.	.	.	.	.	8ff/J
=102	=102	=102	=102	=102	=102
iv	.	[2c\	4g\]	[2ee-\	8ee-/L
.	.	.	.	.	8g/J
Nb	.	.	8a-\L	.	8a-/L
.	.	.	8g\J	.	8g/J
=103	=103	=103	=103	=103	=103
viioD7c	.	2c\_	[2f#\ [2a\	2ee-\_	16f#/LL
.	.	.	.	.	16a/
*	*	*	*	*	*
.	.	.	.	.	16cc/
.	.	.	.	.	16ee-/JJ
.	.	.	.	.	16ff#\LL
.	.	.	.	.	16aa\
.	.	.	.	.	16ccc\
.	.	.	.	.	16eee-\JJ
=104	=104	=104	=104	=104	=104
.	.	4c\]	4f#\] 4a\]	4ee-\]	4eee-\
.	.	4r	4r	4r	8ff#\
.	.	.	.	.	8r
=105	=105	=105	=105	=105	=105
viioD7/V	.	16C#/LL	16c#\LL	16c#/LL	16c#/LL
.	.	16E/	16e\	16e/	16e/
.	.	16G/	16g\	16g/	16g/
.	.	16B-/JJ	16b-\JJ	16b-/JJ	16b-/JJ
.	.	16c#\LL	16cc#\LL	16cc#\LL	16cc#\LL
.	.	16e-\	16ee-\	16ee-\	16ee-\
.	.	16g\	16gg\	16gg\	16gg\
.	.	16b-\JJ	16bb-\JJ	16bb-\JJ	16bb-\JJ
=106	=106	=106	=106	=106	=106
.	.	4b-\	4bb-\	4bb-\	4bb-\
.	.	8c#\	8cc#\	8cc#/	8cc#/
.	.	8r	8r	8r	8r
=107	=107	=107	=107	=107	=107
V	.	8d\	8dd\	8dd/	24r
.	.	.	.	.	24dd\LL
.	.	.	.	.	24ee\
.	.	8r	8r	8r	24ff#\
.	.	.	.	.	24ee\
.	.	.	.	.	24dd\JJ
viioc	.	8c\	8a\	8ff#\	24r
.	.	.	.	.	24ff#\LL
.	.	.	.	.	24gg\
.	.	8r	8r	8r	24aa\
.	.	.	.	.	24gg\
.	.	.	.	.	24ff#\JJ
=108	=108	=108	=108	=108	=108
ib	.	8B-\	8g\	8gg\	24r
.	.	.	.	.	24gg\LL
.	.	.	.	.	24aa\
.	.	8r	8r	8r	24bb-\
.	.	.	.	.	24aa\
.	.	.	.	.	24gg\JJ
V7b	.	8f#\	8d/	8cc/	24r
.	.	.	.	.	24aa\LL
.	.	.	.	.	24bb-\
.	.	8r	8r	8r	24ccc\
.	.	.	.	.	24bb-\
.	.	.	.	.	24aa\JJ
=109	=109	=109	=109	=109	=109
i	.	8g\	8d/	8b-/	24r
.	.	.	.	.	24gg\LL
.	.	.	.	.	24aa\
.	.	8r	8r	8r	24bb-\
.	.	.	.	.	24aa\
.	.	.	.	.	24gg\JJ
VI	.	8e-\	8g\	8b-/	24ggg\LL
.	.	.	.	.	24gg\
.	.	.	.	.	24aa\
.	.	8r	8r	8r	24bb-\
.	.	.	.	.	24aa\
.	.	.	.	.	24gg\JJ
=110	=110	=110	=110	=110	=110
ic	.	8d\	8g\	8b-/	24ggg\LL
.	.	.	.	.	24gg\
.	.	.	.	.	24aa\
.	.	8r	8r	8r	24bb-\
.	.	.	.	.	24aa\
.	.	.	.	.	24gg\JJ
.	.	8r	8r	8r	8ggg\L
viioD7/V	.	8c#\	8ee\	8b-/	8gg\J
=111	=111	=111	=111	=111	=111
V	.	8d\L	8dd\L	8a/L	8ff#/L
viioD7b/V	.	8e\J	8b-\J	8g/J	8cc#/J
Vb	.	8f#\L	8a\L	8a/L	8dd/L
V7c/III	.	8c\J	8a\J	8ee-/J	8ff#/J
=112	=112	=112	=112	=112	=112
ib	.	8B-\L	8b-\L	8dd\L	8gg\L
V7b	.	8f#\J	8d\J	8aa\J	8ccc\J
i	.	8g\L	8d\L	8gg\L	8bb-\L
viioD7c/iv	.	8f\J	8dd\J	8aa-\J	8bb\J
=113	=113	=113	=113	=113	=113
ivb	.	8e-\L	8ee-\L	8gg\L	8ccc\L
V7b/iv	.	8B\J	8g\J	8ddd\J	8fff\J
iv	.	8c\L	8g\L	8ccc\L	8eee-\L
viioD7/V	.	8c#\J	16ee\L	8bb-\J	8ggg\J
.	.	.	16cc#\JJ	.	.
=114	=114	=114	=114	=114	=114
V	.	4d\	8dd\L	8aa\L	8fff#\L
.	.	.	8ff#\J	8aa\J	8ddd\J
VIb	.	4r	8gg\L	8bb-\L	8eee-\L
viiob/V	.	.	8ee\J	8gg\J	8ccc#\J
=115	=115	=115	=115	=115	=115
Vb	.	8r	8ff#\L	8aa\L	8ddd\L
V7	.	8d\	8aa\J	8ff#\J	8ccc\J
VI	.	8e-\L	8gg\L	8gg\L	8bb-\L
ib	.	8B-\J	8b-\J	8dd\J	8gg\J
=116	=116	=116	=116	=116	=116
Nb	.	[2c\	[2a-\	[2ee-\	16aa-/LL
.	.	.	.	.	16c/
.	.	.	.	.	16e-/
.	.	.	.	.	16a-/JJ
.	.	.	.	.	16cc\LL
.	.	.	.	.	16ee-\
.	.	.	.	.	16aa-\
.	.	.	.	.	16ccc\JJ
=117	=117	=117	=117	=117	=117
.	.	4c\]	4a-\]	4ee-\]	4eee-\
.	.	4r	4r	4r	4r
=118	=118	=118	=118	=118	=118
viioD7/V	.	4c#\	4g\	4g/	4b-/
.	.	4r	4r	4r	4r
=119	=119	=119	=119	=119	=119
V7	.	4r	4r	4r	2aa\
.	.	4d\	4f#\	4cc/	.
=120	=120	=120	=120	=120	=120
VI	.	4e-\	4g\	8b-\L	8gg\L
*	*	*	*	*	*
.	.	.	.	8bb-\J	8ggg\J
.	.	4r	4r	4r	4r
=121	=121	=121	=121	=121	=121
iv	.	8C/	8c/	8cc/	8ee-\
.	.	8r	8r	8r	8r
V	.	8D/	8A/	8d/	8f#/
.	.	8r	8r	8r	8r
=122	=122	=122	=122	=122	=122
i	.	4GG/	4G/	4d/	4g/
.	.	4r	4r	4r	4r
==	==	==	==	==	==
*-	*-	*-	*-	*-	*-
